X: 129
T: A Builder Of Bridges
R: hornpipe
M: 4/4
K: Gmajor
(3Bcd|~g3 (3fga ~g2 fd|cAGF G2Bc|dgfd cdAB|GB de =f2dc|
(3deg (3fga ~g2 fd|cAGF G2Bc|d2(3Bcd cEGc|BDFA G2:|:
(3BAG|~F2AB cABc|dg~g2 bgdz|~g3a (3bag (3agf|gfd^c d2d=c|
BE~E2 cEGc|BG~G2 FDFA|G2(3efg fdcd|AG (3FGA G2:|

